Obsidian-SemiLight/actions/16s/dialog-scripts.svg

<svg viewBox="0 0 16 16" xmlns="http://www.w3.org/2000/svg"><path d="m2 2v12h12v-12zm1 1h10v10h-10zm1.71875 1-.71875.6875 2.625 2.8125-2.59375 2.8125.6875.6875 2.96875-3.15625.3125-.34375-.3125-.34375zm3.28125 7v1h4v-1z" fill="#4d4d4d"/></svg>

<svg xmlns="http://www.w3.org/2000/svg" viewBox="0 0 16 16">
  <defs id="defs3051">
    <style type="text/css" id="current-color-scheme">
      .ColorScheme-Text {
        color:#4d4d4d;
      }
      </style>
  </defs>
 <path style="fill:currentColor;fill-opacity:1;stroke:none" 
     d="M 2 2 L 2 14 L 14 14 L 14 2 L 2 2 z M 3 3 L 13 3 L 13 13 L 3 13 L 3 3 z M 4.71875 4 L 4 4.6875 L 6.625 7.5 L 4.03125 10.3125 L 4.71875 11 L 7.6875 7.84375 L 8 7.5 L 7.6875 7.15625 L 4.71875 4 z M 8 11 L 8 12 L 12 12 L 12 11 L 8 11 z "
     class="ColorScheme-Text"
     />
</svg>
